dist/svgs/devui-icons/op/synchronize.svg

<?xml version="1.0" encoding="UTF-8"?>
<svg width="16px" height="16px" viewBox="0 0 16 16" version="1.1" xmlns="http://www.w3.org/2000/svg" xmlns:xlink="http://www.w3.org/1999/xlink">
    <title>操作/synchronization</title>
    <desc>Created with Sketch.</desc>
    <g id="操作/synchronization" stroke="none" stroke-width="1" fill="none" fill-rule="evenodd">
        <path d="M2.21674752,9.5653401 C3.07840863,12.7589841 6.38381399,14.6542343 9.59957703,13.7985 C11.2074586,13.3706328 12.4884935,12.3360318 13.2598504,11.0091921 L15,12.0069575 C13.9715241,13.7760771 12.2634775,15.1555451 10.1196355,15.7260346 C5.83195146,16.8670137 1.42474431,14.3400134 0.275862827,10.0818215 C-0.0982576084,8.69518874 -0.0807292122,7.29596891 0.261105679,6 L5.12807455,8.79061807 L2.21674752,9.5653401 L2.21674752,9.5653401 Z M15.7241372,5.91817855 C16.0982576,7.30481126 16.0807292,8.70403109 15.7388943,10 L10.8719255,7.20938193 L13.7832525,6.4346599 C12.9215914,3.24101592 9.61618601,1.34576568 6.40042297,2.20150001 C4.79254145,2.62936717 3.51150652,3.66396818 2.74014961,4.99080789 L1,3.99304254 C2.02847588,2.22392292 3.73652245,0.844454904 5.88036448,0.273965353 C10.1680485,-0.867013747 14.5752557,1.65998658 15.7241372,5.91817855 L15.7241372,5.91817855 Z M6,5 L10,5 L10,7 L6,7 L6,5 Z M6,9 L10,9 L10,11 L6,11 L6,9 Z" id="形状" fill="#293040" fill-rule="nonzero"></path>
    </g>
</svg>

<svg xmlns="http://www.w3.org/2000/svg" viewBox="0 0 16 16"><path d="M2.217 9.565c.861 3.194 4.167 5.09 7.383 4.234a6.004 6.004 0 003.66-2.79l1.74.998a8.005 8.005 0 01-4.88 3.719C5.832 16.867 1.425 14.34.276 10.082A7.893 7.893 0 01.26 6l4.867 2.79-2.911.775zm13.507-3.647A7.893 7.893 0 0115.74 10l-4.867-2.79 2.911-.775C12.922 3.24 9.616 1.345 6.4 2.202A6.004 6.004 0 002.74 4.99L1 3.993A8.005 8.005 0 015.88.274c4.288-1.141 8.695 1.386 9.844 5.644zM6 5h4v2H6V5zm0 4h4v2H6V9z"/></svg>
